src/scalable/apps/koodo-reader.svg

<svg xmlns="http://www.w3.org/2000/svg" width="64" height="64"><rect width="52" height="52" x="6" y="6" fill="#3f3f3f" rx="8" ry="8"/><path fill="none" stroke="#757575" stroke-linecap="round" stroke-linejoin="round" stroke-width="2" d="M50 48h-4m-4 0h-4m-4 0h-4m-4 0h-4m-4 0h-4m36-10h-4m-4 0h-4m-4 0h-4m-4 0h-4m-4 0h-4m4 0h-4m36-11h-4m-4 0h-4m-4 0h-4m-4 0h-4m-4 0h-4m36-11h-4m-4 0h-4m-4 0h-4m-4 0h-4m-4 0h-4"/><path fill="#ffc540" d="M33.004 6v17.497c-.031.382.113.677.604.385l4.892-4.308 4.892 4.308c.49.292.635-.003.604-.385V6H38.5z"/><path fill="none" stroke="#fff" stroke-linecap="round" stroke-linejoin="round" stroke-width="6" d="M16 29v17m11-17-10.023 7.988M27 46l-10.023-7.755"/><circle cx="16" cy="21" r="3" fill="#ffc540"/></svg>

<svg xmlns="http://www.w3.org/2000/svg" width="64" height="64"><rect width="52" height="52" x="6" y="6" fill="#3f3f3f" rx="8" ry="8"/><path fill="none" stroke="#757575" stroke-linecap="round" stroke-linejoin="round" stroke-width="2" d="M50 48h-4M42 48h-4M34 48h-4M26 48h-4M18 48h-4M50 38h-4M42 38h-4M34 38h-4M26 38h-4M18 38h-4M18 38h-4M50 27h-4M42 27h-4M34 27h-4M26 27h-4M18 27h-4M50 16h-4M42 16h-4M34 16h-4M26 16h-4M18 16h-4"/><path fill="#ffc540" d="M33.004 6v17.497c-.031.382.113.677.604.385l4.892-4.308 4.892 4.308c.49.292.635-.003.604-.385V6H38.5z"/><path fill="none" stroke="#fff" stroke-linecap="round" stroke-linejoin="round" stroke-width="6" d="M16 29v17M27 29l-10.023 7.988M27 46l-10.023-7.755"/><circle cx="16" cy="21" r="3" fill="#ffc540"/></svg>
